packages/katcn/src/icons/svg/strikethrough.svg

<svg width="24" height="25" viewBox="0 0 24 25" fill="none" xmlns="http://www.w3.org/2000/svg">
<path d="M5.1 10.796C5.3 10.796 5.4 10.796 5.6 10.696C6.1 10.496 6.3 9.89602 6 9.39602C5.7 8.89602 5.6 8.39602 5.6 7.79602C5.6 6.89602 6 5.99602 6.6 5.29602C7.3 4.69602 8.1 4.29602 9 4.29602C8.2 5.29602 7.7 6.49602 7.7 7.79602C7.7 8.69602 7.9 9.49602 8.3 10.296C8.5 10.596 8.8 10.796 9.2 10.796C9.4 10.796 9.5 10.796 9.7 10.696C10.2 10.396 10.4 9.79602 10.1 9.39602C9.8 8.89602 9.7 8.39602 9.7 7.79602C9.7 6.89602 10.1 5.99602 10.7 5.29602C11.3 4.59602 12.2 4.29602 13.2 4.29602H16.1H16.9C17.5 4.29602 17.9 3.89602 17.9 3.29602C17.9 2.69602 17.5 2.29602 16.9 2.29602H16.1H13.2H9.1C7.7 2.29602 6.3 2.89602 5.2 3.89602C4.2 4.89602 3.6 6.29602 3.6 7.79602C3.6 8.69602 3.8 9.49602 4.2 10.296C4.4 10.596 4.8 10.796 5.1 10.796Z" fill="black"/>
<path d="M21 11.296H14H13.2H10H9.1H3C2.4 11.296 2 11.696 2 12.296C2 12.896 2.4 13.296 3 13.296H9.1H10C10.9 13.296 11.8 13.696 12.5 14.296C13.2 14.996 13.5 15.796 13.5 16.796C13.5 18.696 11.9 20.296 10 20.296H7.1H5.5C4.9 20.296 4.5 20.696 4.5 21.296C4.5 21.896 4.9 22.296 5.5 22.296H7.1H10H14C17 22.296 19.5 19.796 19.5 16.796C19.5 15.496 19 14.296 18.2 13.296H21C21.6 13.296 22 12.896 22 12.296C22 11.696 21.6 11.296 21 11.296ZM14.2 20.296C15 19.396 15.4 18.096 15.4 16.796C15.4 15.496 14.9 14.296 14.1 13.296C15 13.296 15.8 13.696 16.4 14.296C17.1 14.996 17.4 15.796 17.4 16.796C17.5 18.696 16.1 20.196 14.2 20.296Z" fill="black"/>
</svg>

<svg xmlns="http://www.w3.org/2000/svg" fill="none" viewBox="0 0 24 25"><path fill="#000" d="M5.1 10.796c.2 0 .3 0 .5-.1.5-.2.7-.8.4-1.3s-.4-1-.4-1.6c0-.9.4-1.8 1-2.5.7-.6 1.5-1 2.4-1-.8 1-1.3 2.2-1.3 3.5 0 .9.2 1.7.6 2.5.2.3.5.5.9.5.2 0 .3 0 .5-.1.5-.3.7-.9.4-1.3-.3-.5-.4-1-.4-1.6 0-.9.4-1.8 1-2.5s1.5-1 2.5-1h3.7c.6 0 1-.4 1-1s-.4-1-1-1H9.1c-1.4 0-2.8.6-3.9 1.6-1 1-1.6 2.4-1.6 3.9 0 .9.2 1.7.6 2.5.2.3.6.5.9.5m15.9.5H3c-.6 0-1 .4-1 1s.4 1 1 1h7c.9 0 1.8.4 2.5 1 .7.7 1 1.5 1 2.5 0 1.9-1.6 3.5-3.5 3.5H5.5c-.6 0-1 .4-1 1s.4 1 1 1H14c3 0 5.5-2.5 5.5-5.5 0-1.3-.5-2.5-1.3-3.5H21c.6 0 1-.4 1-1s-.4-1-1-1m-6.8 9c.8-.9 1.2-2.2 1.2-3.5s-.5-2.5-1.3-3.5c.9 0 1.7.4 2.3 1 .7.7 1 1.5 1 2.5.1 1.9-1.3 3.4-3.2 3.5"/></svg>
